 MRL Name                    Size Mode             Filename/Process
 --- ----                    ---- ----             ----------------
[ Default ]
     main.scd<live>          1449 SCLang           ~/.local/share/SuperCollider/downloaded-quarks/live/main.scd
     ~/.local/share/...         0 Fundamental      ~/.local/share/SuperCollider/downloaded-quarks/live/
     main.sc<live>            124 SCLang           ~/.local/share/SuperCollider/downloaded-quarks/live/main.sc
     main.sc<Zyn>            1776 SCLang           /usr/local/share/SuperCollider/Extensions/local/Zyn/main.sc
  %  local                    667 Dired by name    /usr/local/share/SuperCollider/Extensions/local/
  %  downloaded-quarks        677 Dired by name    ~/.local/share/SuperCollider/downloaded-quarks/
  %  *Help*                 18612 Help             
 *   *SCLang:PostBuf...      6898 SCLang           
  %  ResponseDefs.sc        33533 SCLang           /usr/local/share/SuperCollider/SCClassLibrary/Common/Control/ResponseDefs.sc
 *   *SCLang:Workspace*       285 SCLang           
     son.scd                  951 SCLang           ~/.local/share/SuperCollider/downloaded-quarks/live/GUI/son.scd
  %  *Buffer List*           5346 Buffer Menu      
  %  live                     872 Dired by name    ~/.local/share/SuperCollider/downloaded-quarks/live/
  %  SCClassLibrary           652 Dired by name    /usr/local/share/SuperCollider/SCClassLibrary/
  %  SuperCollider            772 Dired by name    /usr/local/share/SuperCollider/
  %  Common                   832 Dired by name    /usr/local/share/SuperCollider/SCClassLibrary/Common/
  %  Control                 2536 Dired by name    /usr/local/share/SuperCollider/SCClassLibrary/Common/Control/
  %  NetAddr.sc              5795 SCLang           /usr/local/share/SuperCollider/SCClassLibrary/Common/Control/NetAddr.sc
  %  GUI                      460 Dired            ~/.local/share/SuperCollider/downloaded-quarks/live/GUI/
     midiCtl.scd              971 SCLang           ~/.local/share/SuperCollider/downloaded-quarks/live/midiCtl.scd
     mel.scd                  240 SCLang           ~/.local/share/SuperCollider/downloaded-quarks/live/GUI/mel.scd
 *%  patterns                 739 Dired by name    ~/.local/share/SuperCollider/downloaded-quarks/live/patterns/
  %  mel                      576 Dired by name    ~/.local/share/SuperCollider/downloaded-quarks/live/patterns/mel/
     cons2.scd                941 SCLang           ~/.local/share/SuperCollider/downloaded-quarks/live/patterns/mel/rythme/cons2.scd
  %  rythme                   415 Dired by name    ~/.local/share/SuperCollider/downloaded-quarks/live/patterns/mel/rythme/
     plusSoft.scd             611 SCLang           ~/.local/share/SuperCollider/downloaded-quarks/live/patterns/mel/degree/plusSoft.scd
  %  degree                   364 Dired by name    ~/.local/share/SuperCollider/downloaded-quarks/live/patterns/mel/degree/
     main.scd<mel>             62 SCLang           ~/.local/share/SuperCollider/downloaded-quarks/live/patterns/mel/main.scd
  %  harmo                    416 Dired            ~/.local/share/SuperCollider/downloaded-quarks/live/patterns/harmo/
     melAncien.scd           1942 SCLang           ~/.local/share/SuperCollider/downloaded-quarks/live/GUI/melAncien.scd
  %  SCViewHolder.sc         6856 SCLang           /usr/local/share/SuperCollider/SCClassLibrary/Common/GUI/backwardsCompatibility/SCViewHolder.sc
  %  JITGui.sc               4743 SCLang           /usr/local/share/SuperCollider/SCClassLibrary/JITLib/GUI/JITGui.sc
  %  TaskProxyGui.sc        10470 SCLang           /usr/local/share/SuperCollider/SCClassLibrary/JITLib/GUI/TaskProxyGui.sc
     seedGUI.scd              421 SCLang           ~/.local/share/SuperCollider/downloaded-quarks/live/GUI/seedGUI.scd
     ambitus.scd              350 SCLang           ~/.local/share/SuperCollider/downloaded-quarks/live/patterns/ambitus.scd
     sfz.scd                  343 SCLang           ~/.local/share/SuperCollider/downloaded-quarks/live/patterns/timbres/sfz.scd
     midi.scd                 244 SCLang           ~/.local/share/SuperCollider/downloaded-quarks/live/patterns/timbres/midi.scd
  %  timbres                  350 Dired by name    ~/.local/share/SuperCollider/downloaded-quarks/live/patterns/timbres/
     repe.scd                 327 SCLang           ~/.local/share/SuperCollider/downloaded-quarks/live/patterns/repe.scd
     rand.scd                1277 SCLang           ~/.local/share/SuperCollider/downloaded-quarks/live/patterns/rand.scd
     midi.s                   279 Assembler        ~/.local/share/SuperCollider/downloaded-quarks/live/patterns/midi.s
     fromMel.scd               70 SCLang           ~/.local/share/SuperCollider/downloaded-quarks/live/patterns/harmo/fromMel.scd
     fromGrille.scd           764 SCLang           ~/.local/share/SuperCollider/downloaded-quarks/live/patterns/harmo/fromGrille.scd
     setup.scd                 86 SCLang           ~/.local/share/SuperCollider/downloaded-quarks/live/setup.scd
     live.quark               149 Fundamental      ~/.local/share/SuperCollider/downloaded-quarks/live/live.quark
     front.scd                480 SCLang           ~/.local/share/SuperCollider/downloaded-quarks/live/forme/front.scd
     forme.scd                723 SCLang           ~/.local/share/SuperCollider/downloaded-quarks/live/forme/forme.scd
  %  forme                    342 Dired by name    ~/.local/share/SuperCollider/downloaded-quarks/live/forme/
     dependances.scd          181 SCLang           ~/.local/share/SuperCollider/downloaded-quarks/live/dependances.scd
  %  *GNU Emacs*              847 Fundamental      
     *scratch*                145 Lisp Interaction 
 *%  *Messages*             11109 Messages         
 *   *Dired log*              359 Fundamental      
 *%  *Completions*            199 Completion List  

     54 buffers            130628                  45 files, no processes